X:1
T:Psalm 68
T:V 16
L:1/4
M:12/4
I:linebreak $
K:C
V:1 treble nm="Pipe Organ" snm="Org."
V:1
 d2 d d ^c A B B A3 z |$ d2 d d ^c A B B A3 z |$ ^F2 G B A F G2 F3 z |$ E2 ^F G A G F F E3 z |$ %4
w: Hoe vrees- lik is U, HEER, al- om|uit u ver- he- we hei- lig- dom,|om- ring deur sterk- te\_en- e- re!|Dis Is- r'els God wat won- ders werk|
 A2 B ^c d c B B A3 z |$ D2 E ^F G F E2 D4 |] %6
w: en wat sy volk met krag ver- sterk:|U loof ons, HEER der he- re!|

